X: 29992
T: Ode To Heaney
R: waltz
M: 3/4
K: Edorian
|:(E2 E3/2)B/ A3/2B/|(G2 G2) E/F/G|F3/2D/ d2 c3/2d/|B/c/d A3/2F/ E3/2D/|
(E2 E3/2)B/ A3/2B/|(G2 G2) E/F/G|F3/2D/ E3/2F/ d3/2B/|A3/2B/ d3/2e/ e3/2d/|
(E2 E3/2)B/ A3/2B/|(G2 G2) E/F/G|F3/2D/ d2 c3/2d/|A3/2f/ e3/2d/ B3/2d/|
f3/2g/ f3/2g/ e3/2d/|B/c/d c3/2A/ B3/2A/|F2 Fd cd|Bd AF ED:|
(G2 G3/2)A/ B3/2G/|(A2 A3/2)G/ F3/2D/|(E2 E3/2)g/ f3/2g/|e3/2g/ d3/2B/ A3/2F/|
(G2 G3/2)A/ B3/2G/|(A2 A3/2)B/ B3/2A/|B2 (g2 g3/2)a/|f3/2e/ d3/2B/ A3/2F/|
(G2 G3/2)A/ B3/2G/|(A2 A3/2)G/ F3/2D/|(E2 E3/2)g/ f3/2g/|e3/2g/ d3/2B/ A3/2f/|
g2 f3/2g/ e3/2d/|B/c/d c3/2A/ B3/2A/|(F2 F3/2)d/ c3/2d/|B3/2d/ A3/2F/ E3/2D/||

